symbols/web/integration_instructions/materialsymbolssharp/integration_instructions_wght200fill1_48px.svg

<svg xmlns="http://www.w3.org/2000/svg" height="48" width="48"><path d="m19.2 29.75 1.1-1.05-4.6-4.7 4.6-4.65-1.1-1.1L13.45 24Zm9.6 0L34.55 24l-5.75-5.75-1.1 1.1L32.35 24l-4.65 4.7ZM8 40V8h13q-.4-1.5.525-2.75T24 4q1.6 0 2.525 1.25Q27.45 6.5 27 8h13v32ZM24 8.75q.65 0 1.15-.475.5-.475.5-1.175 0-.65-.5-1.125T24 5.5q-.65 0-1.125.475T22.4 7.1q0 .7.475 1.175.475.475 1.125.475Z"/></svg>

<svg xmlns="http://www.w3.org/2000/svg" height="48" width="48"><path d="M19.2 29.75 20.3 28.7 15.7 24 20.3 19.35 19.2 18.25 13.45 24ZM28.8 29.75 34.55 24 28.8 18.25 27.7 19.35 32.35 24 27.7 28.7ZM8 40V8H20.65Q20.35 6.5 21.375 5.25Q22.4 4 24 4Q25.7 4 26.675 5.25Q27.65 6.5 27.4 8H40V40ZM24 8.75Q24.65 8.75 25.15 8.275Q25.65 7.8 25.65 7.15Q25.65 6.5 25.15 6Q24.65 5.5 24 5.5Q23.35 5.5 22.875 6Q22.4 6.5 22.4 7.15Q22.4 7.8 22.875 8.275Q23.35 8.75 24 8.75Z"/></svg>
